images/soy_sauce.svg

<?xml version="1.0" encoding="UTF-8"?>
<svg width="30px" height="66px" viewBox="0 0 30 66" version="1.1" xmlns="http://www.w3.org/2000/svg" xmlns:xlink="http://www.w3.org/1999/xlink">
    <!-- Generator: Sketch 42 (36781) - http://www.bohemiancoding.com/sketch -->
    <title>soy_sauce</title>
    <desc>Created with Sketch.</desc>
    <defs>
        <polygon id="path-1" points="15.375 33.75 18.75 35.625 18.75 39.375 15.375 41.25 12 39.375 12 35.625"></polygon>
        <mask id="mask-2" maskContentUnits="userSpaceOnUse" maskUnits="objectBoundingBox" x="-2" y="-2" width="10.75" height="11.5">
            <rect x="10" y="31.75" width="10.75" height="11.5" fill="white"></rect>
            <use xlink:href="#path-1" fill="black"></use>
        </mask>
        <polygon id="path-3" points="15.525 35.25 17.55 36.375 17.55 38.625 15.525 39.75 13.5 38.625 13.5 36.375"></polygon>
        <mask id="mask-4" maskContentUnits="userSpaceOnUse" maskUnits="objectBoundingBox" x="0" y="0" width="4.05" height="4.5" fill="white">
            <use xlink:href="#path-3"></use>
        </mask>
    </defs>
    <g id="Page-1" stroke="none" stroke-width="1" fill="none" fill-rule="evenodd">
        <g id="soy_sauce">
            <path d="M15.5526316,0 L15.5526316,7.5 C15.5526316,7.5 9.49151104,7.5 7.35229202,7.5 C7.35229202,3.75 4.5,0 4.5,0 L15.5526316,0 Z M15.5526316,0 L25.5,0 C25.5,0 22.5526316,3.75 22.5526316,7.5 C20.3421053,7.5 15.5526316,7.5 15.5526316,7.5 L15.5526316,0 Z" id="Combined-Shape" fill="#E5423B"></path>
            <path d="M14.6625964,7.5 L20.527635,7.5 C20.527635,28.5 32.9908419,44.25 29.3251928,63 C27.8589332,66 14.6625964,66 14.6625964,66 L14.6625964,7.5 Z M14.6625964,7.5 L14.6625964,66 C14.6625964,66 2.04686528,66 0.645117378,63 C-2.85925238,44.25 9.05560479,28.5 9.05560479,7.5 L14.6625964,7.5 Z" id="Combined-Shape" fill="#F0F7FE"></path>
            <path d="M22.2511014,24.75 C25.4634174,37.8396841 31.1655705,49.3660979 28.6089332,62.4266965 C27.2159865,65.2730474 14.6794666,65.2730474 14.6794666,65.2730474 L14.6794666,24.75 L22.2511014,24.75 Z M14.6794666,24.75 L14.6794666,65.2730474 C14.6794666,65.2730474 2.69452202,65.2730474 1.36286151,62.4266965 C-1.08129025,49.3660979 4.36998245,37.8396841 7.44096468,24.75 L14.6794666,24.75 Z" id="Combined-Shape-Copy-2" fill="#0F081A"></path>
            <use id="Polygon" stroke="#F39F32" mask="url(#mask-2)" stroke-width="4" stroke-linecap="square" xlink:href="#path-1"></use>
            <use id="Polygon-Copy" stroke="#F39F32" mask="url(#mask-4)" stroke-width="2" stroke-linecap="square" xlink:href="#path-3"></use>
            <path d="M7.1625,48.045 C7.83375,48.045 8.2425,47.72625 8.2425,47.175 C8.2425,46.245 6.85125,46.4475 6.85125,46.21125 C6.85125,46.1475 6.8925,46.09875 7.0425,46.09875 C7.27875,46.09875 7.56,46.18125 7.7775,46.34625 L8.1825,45.81 C7.8975,45.5775 7.53,45.46125 7.12125,45.46125 C6.435,45.46125 6.0825,45.86625 6.0825,46.29 C6.0825,47.27625 7.4775,47.0325 7.4775,47.2725 C7.4775,47.37 7.3425,47.4075 7.2,47.4075 C6.8625,47.4075 6.58125,47.265 6.39375,47.085 L6,47.6475 C6.26625,47.8875 6.63,48.045 7.1625,48.045 Z M9.3675,48.045 C8.72625,48.045 8.35125,47.59875 8.35125,47.0925 C8.35125,46.58625 8.72625,46.14375 9.3675,46.14375 C10.0125,46.14375 10.3875,46.58625 10.3875,47.0925 C10.3875,47.59875 10.0125,48.045 9.3675,48.045 Z M9.3675,47.44875 C9.5775,47.44875 9.69375,47.295 9.69375,47.0925 C9.69375,46.89375 9.5775,46.74 9.3675,46.74 C9.16125,46.74 9.045,46.89375 9.045,47.0925 C9.045,47.295 9.16125,47.44875 9.3675,47.44875 Z M10.62,48.705 C10.68375,48.72375 10.83375,48.735 10.8825,48.735 C11.265,48.72375 11.565,48.645 11.72625,48.225 L12.51375,46.18875 L11.80125,46.18875 L11.4525,47.22375 L11.1075,46.18875 L10.395,46.18875 L11.1075,48.03 L11.0925,48.0675 C11.07,48.11625 10.9875,48.13875 10.85625,48.13875 C10.81125,48.13875 10.755,48.1275 10.71375,48.105 L10.62,48.705 Z M14.5875,48.045 C15.25875,48.045 15.6675,47.72625 15.6675,47.175 C15.6675,46.245 14.27625,46.4475 14.27625,46.21125 C14.27625,46.1475 14.3175,46.09875 14.4675,46.09875 C14.70375,46.09875 14.985,46.18125 15.2025,46.34625 L15.6075,45.81 C15.3225,45.5775 14.955,45.46125 14.54625,45.46125 C13.86,45.46125 13.5075,45.86625 13.5075,46.29 C13.5075,47.27625 14.9025,47.0325 14.9025,47.2725 C14.9025,47.37 14.7675,47.4075 14.625,47.4075 C14.2875,47.4075 14.00625,47.265 13.81875,47.085 L13.425,47.6475 C13.69125,47.8875 14.055,48.045 14.5875,48.045 Z M17.62125,48 L16.94625,48 L16.94625,47.8275 C16.845,47.955 16.62375,48.045 16.39875,48.045 C16.12875,48.045 15.77625,47.86125 15.77625,47.44875 C15.77625,46.99875 16.12875,46.87125 16.39875,46.87125 C16.635,46.87125 16.84875,46.94625 16.94625,47.07 L16.94625,46.8825 C16.94625,46.755 16.83,46.6575 16.60875,46.6575 C16.44,46.6575 16.24875,46.725 16.10625,46.83375 L15.8775,46.4175 C16.12125,46.2225 16.45875,46.14375 16.7325,46.14375 C17.1825,46.14375 17.62125,46.30125 17.62125,46.905 L17.62125,48 Z M16.68,47.60625 C16.785,47.60625 16.90125,47.5725 16.94625,47.50875 L16.94625,47.4075 C16.90125,47.34375 16.785,47.31 16.68,47.31 C16.5675,47.31 16.44375,47.3475 16.44375,47.46 C16.44375,47.5725 16.5675,47.60625 16.68,47.60625 Z M19.89375,48 L19.89375,46.18875 L19.21875,46.18875 L19.21875,47.30625 C19.1625,47.37 19.08375,47.44875 18.93375,47.44875 C18.76875,47.44875 18.67125,47.3775 18.67125,47.19375 L18.67125,46.18875 L17.99625,46.18875 L17.99625,47.4825 C17.99625,47.79375 18.17625,48.045 18.59625,48.045 C18.915,48.045 19.11375,47.91375 19.21875,47.7975 L19.21875,48 L19.89375,48 Z M21.16125,48.045 C21.57375,48.045 21.82875,47.85375 21.93,47.70375 L21.495,47.29125 C21.43875,47.37375 21.33375,47.44875 21.19125,47.44875 C21,47.44875 20.835,47.325 20.835,47.0925 C20.835,46.86 21,46.74 21.19125,46.74 C21.33375,46.74 21.43875,46.8075 21.495,46.89375 L21.93,46.485 C21.82875,46.33125 21.57375,46.14375 21.16125,46.14375 C20.5875,46.14375 20.145,46.51875 20.145,47.0925 C20.145,47.67 20.5875,48.045 21.16125,48.045 Z M23.03625,48.045 C22.47,48.045 22.0275,47.68875 22.0275,47.0925 C22.0275,46.5675 22.42875,46.14375 23.01375,46.14375 C23.54625,46.14375 23.955,46.52625 23.955,47.16375 L23.955,47.3025 L22.725,47.3025 C22.7625,47.41875 22.89375,47.53125 23.115,47.53125 C23.21625,47.53125 23.44125,47.4825 23.53125,47.40375 L23.80875,47.82 C23.62875,47.97375 23.30625,48.045 23.03625,48.045 Z M23.31375,46.875 C23.295,46.79625 23.23125,46.6575 23.01375,46.6575 C22.8075,46.6575 22.74,46.7925 22.7175,46.875 L23.31375,46.875 Z" id="Soy-Sauce" fill="#F39F32"></path>
        </g>
    </g>
</svg>

<?xml version="1.0" encoding="UTF-8" standalone="no"?>
<svg
   xmlns:dc="http://purl.org/dc/elements/1.1/"
   xmlns:cc="http://creativecommons.org/ns#"
   xmlns:rdf="http://www.w3.org/1999/02/22-rdf-syntax-ns#"
   xmlns:svg="http://www.w3.org/2000/svg"
   xmlns="http://www.w3.org/2000/svg"
   xmlns:xlink="http://www.w3.org/1999/xlink"
   xmlns:sodipodi="http://sodipodi.sourceforge.net/DTD/sodipodi-0.dtd"
   xmlns:inkscape="http://www.inkscape.org/namespaces/inkscape"
   width="30px"
   height="66px"
   viewBox="0 0 30 66"
   version="1.1"
   id="svg17724"
   inkscape:version="0.91 r13725"
   sodipodi:docname="soy_sauce.svg">
  <metadata
     id="metadata17753">
    <rdf:RDF>
      <cc:Work
         rdf:about="">
        <dc:format>image/svg+xml</dc:format>
        <dc:type
           rdf:resource="http://purl.org/dc/dcmitype/StillImage" />
      </cc:Work>
    </rdf:RDF>
  </metadata>
  <sodipodi:namedview
     pagecolor="#ffffff"
     bordercolor="#666666"
     borderopacity="1"
     objecttolerance="10"
     gridtolerance="10"
     guidetolerance="10"
     inkscape:pageopacity="0"
     inkscape:pageshadow="2"
     inkscape:window-width="732"
     inkscape:window-height="480"
     id="namedview17751"
     showgrid="false"
     inkscape:zoom="3.5757576"
     inkscape:cx="15"
     inkscape:cy="55.372881"
     inkscape:window-x="0"
     inkscape:window-y="0"
     inkscape:window-maximized="0"
     inkscape:current-layer="svg17724" />
  <!-- Generator: Sketch 42 (36781) - http://www.bohemiancoding.com/sketch -->
  <title
     id="title17726">soy_sauce</title>
  <desc
     id="desc17728">Created with Sketch.</desc>
  <defs
     id="defs17730">
    <polygon
       id="path-1"
       points="15.375 33.75 18.75 35.625 18.75 39.375 15.375 41.25 12 39.375 12 35.625" />
    <mask
       id="mask-2"
       maskContentUnits="userSpaceOnUse"
       maskUnits="objectBoundingBox"
       x="-2"
       y="-2"
       width="10.75"
       height="11.5">
      <rect
         x="10"
         y="31.75"
         width="10.75"
         height="11.5"
         fill="white"
         id="rect17734" />
      <use
         xlink:href="#path-1"
         fill="black"
         id="use17736" />
    </mask>
    <polygon
       id="path-3"
       points="15.525 35.25 17.55 36.375 17.55 38.625 15.525 39.75 13.5 38.625 13.5 36.375" />
    <mask
       id="mask-4"
       maskContentUnits="userSpaceOnUse"
       maskUnits="objectBoundingBox"
       x="0"
       y="0"
       width="4.05"
       height="4.5"
       fill="white">
      <use
         xlink:href="#path-3"
         id="use17740" />
    </mask>
  </defs>
  <g
     id="Page-1"
     transform="translate(0,2)"
     style="fill:none;fill-rule:evenodd;stroke:none;stroke-width:1">
    <g
       id="soy_sauce">
      <path
         d="m 15.552632,0 0,7.5 c 0,0 -6.061121,0 -8.20034,0 C 7.352292,3.75 4.5,0 4.5,0 l 11.052632,0 z m 0,0 L 25.5,0 c 0,0 -2.947368,3.75 -2.947368,7.5 -2.210527,0 -7,0 -7,0 l 0,-7.5 z"
         id="Combined-Shape"
         inkscape:connector-curvature="0"
         style="fill:#e5423b" />
      <path
         d="m 14.662596,7.5 5.865039,0 c 0,21 12.463207,36.75 8.797558,55.5 -1.46626,3 -14.662597,3 -14.662597,3 l 0,-58.5 z m 0,0 0,58.5 c 0,0 -12.6157307,0 -14.01747862,-3 C -2.8592524,44.25 9.0556048,28.5 9.0556048,7.5 l 5.6069912,0 z"
         id="path17745"
         inkscape:connector-curvature="0"
         style="fill:#f0f7fe" />
      <path
         d="m 22.251101,24.75 c 3.212316,13.089684 8.914469,24.616098 6.357832,37.676696 -1.392947,2.846351 -13.929466,2.846351 -13.929466,2.846351 l 0,-40.523047 7.571634,0 z m -7.571634,0 0,40.523047 c 0,0 -11.984945,0 -13.3166055,-2.846351 C -1.0812902,49.366098 4.3699824,37.839684 7.4409647,24.75 l 7.2385023,0 z"
         id="Combined-Shape-Copy-2"
         inkscape:connector-curvature="0"
         style="fill:#0f081a" />
      <use
         id="Polygon"
         mask="url(#mask-2)"
         xlink:href="#path-1"
         style="stroke:#f39f32;stroke-width:4;stroke-linecap:square"
         x="0"
         y="0"
         width="100%"
         height="100%" />
      <use
         id="Polygon-Copy"
         mask="url(#mask-4)"
         xlink:href="#path-3"
         style="stroke:#f39f32;stroke-width:2;stroke-linecap:square"
         x="0"
         y="0"
         width="100%"
         height="100%" />
      <path
         d="m 7.1625,48.045 c 0.67125,0 1.08,-0.31875 1.08,-0.87 0,-0.93 -1.39125,-0.7275 -1.39125,-0.96375 0,-0.06375 0.04125,-0.1125 0.19125,-0.1125 0.23625,0 0.5175,0.0825 0.735,0.2475 L 8.1825,45.81 C 7.8975,45.5775 7.53,45.46125 7.12125,45.46125 c -0.68625,0 -1.03875,0.405 -1.03875,0.82875 0,0.98625 1.395,0.7425 1.395,0.9825 0,0.0975 -0.135,0.135 -0.2775,0.135 -0.3375,0 -0.61875,-0.1425 -0.80625,-0.3225 L 6,47.6475 c 0.26625,0.24 0.63,0.3975 1.1625,0.3975 z m 2.205,0 c -0.64125,0 -1.01625,-0.44625 -1.01625,-0.9525 0,-0.50625 0.375,-0.94875 1.01625,-0.94875 0.645,0 1.02,0.4425 1.02,0.94875 0,0.50625 -0.375,0.9525 -1.02,0.9525 z m 0,-0.59625 c 0.21,0 0.32625,-0.15375 0.32625,-0.35625 0,-0.19875 -0.11625,-0.3525 -0.32625,-0.3525 -0.20625,0 -0.3225,0.15375 -0.3225,0.3525 0,0.2025 0.11625,0.35625 0.3225,0.35625 z M 10.62,48.705 c 0.06375,0.01875 0.21375,0.03 0.2625,0.03 0.3825,-0.01125 0.6825,-0.09 0.84375,-0.51 l 0.7875,-2.03625 -0.7125,0 -0.34875,1.035 -0.345,-1.035 -0.7125,0 0.7125,1.84125 -0.015,0.0375 c -0.0225,0.04875 -0.105,0.07125 -0.23625,0.07125 -0.045,0 -0.10125,-0.01125 -0.1425,-0.03375 l -0.09375,0.6 z m 3.9675,-0.66 c 0.67125,0 1.08,-0.31875 1.08,-0.87 0,-0.93 -1.39125,-0.7275 -1.39125,-0.96375 0,-0.06375 0.04125,-0.1125 0.19125,-0.1125 0.23625,0 0.5175,0.0825 0.735,0.2475 L 15.6075,45.81 c -0.285,-0.2325 -0.6525,-0.34875 -1.06125,-0.34875 -0.68625,0 -1.03875,0.405 -1.03875,0.82875 0,0.98625 1.395,0.7425 1.395,0.9825 0,0.0975 -0.135,0.135 -0.2775,0.135 -0.3375,0 -0.61875,-0.1425 -0.80625,-0.3225 L 13.425,47.6475 c 0.26625,0.24 0.63,0.3975 1.1625,0.3975 z M 17.62125,48 l -0.675,0 0,-0.1725 c -0.10125,0.1275 -0.3225,0.2175 -0.5475,0.2175 -0.27,0 -0.6225,-0.18375 -0.6225,-0.59625 0,-0.45 0.3525,-0.5775 0.6225,-0.5775 0.23625,0 0.45,0.075 0.5475,0.19875 l 0,-0.1875 c 0,-0.1275 -0.11625,-0.225 -0.3375,-0.225 -0.16875,0 -0.36,0.0675 -0.5025,0.17625 L 15.8775,46.4175 c 0.24375,-0.195 0.58125,-0.27375 0.855,-0.27375 0.45,0 0.88875,0.1575 0.88875,0.76125 l 0,1.095 z M 16.68,47.60625 c 0.105,0 0.22125,-0.03375 0.26625,-0.0975 l 0,-0.10125 C 16.90125,47.34375 16.785,47.31 16.68,47.31 c -0.1125,0 -0.23625,0.0375 -0.23625,0.15 0,0.1125 0.12375,0.14625 0.23625,0.14625 z M 19.89375,48 l 0,-1.81125 -0.675,0 0,1.1175 c -0.05625,0.06375 -0.135,0.1425 -0.285,0.1425 -0.165,0 -0.2625,-0.07125 -0.2625,-0.255 l 0,-1.005 -0.675,0 0,1.29375 c 0,0.31125 0.18,0.5625 0.6,0.5625 0.31875,0 0.5175,-0.13125 0.6225,-0.2475 l 0,0.2025 0.675,0 z m 1.2675,0.045 c 0.4125,0 0.6675,-0.19125 0.76875,-0.34125 l -0.435,-0.4125 c -0.05625,0.0825 -0.16125,0.1575 -0.30375,0.1575 C 21,47.44875 20.835,47.325 20.835,47.0925 20.835,46.86 21,46.74 21.19125,46.74 c 0.1425,0 0.2475,0.0675 0.30375,0.15375 L 21.93,46.485 c -0.10125,-0.15375 -0.35625,-0.34125 -0.76875,-0.34125 -0.57375,0 -1.01625,0.375 -1.01625,0.94875 0,0.5775 0.4425,0.9525 1.01625,0.9525 z m 1.875,0 c -0.56625,0 -1.00875,-0.35625 -1.00875,-0.9525 0,-0.525 0.40125,-0.94875 0.98625,-0.94875 0.5325,0 0.94125,0.3825 0.94125,1.02 l 0,0.13875 -1.23,0 c 0.0375,0.11625 0.16875,0.22875 0.39,0.22875 0.10125,0 0.32625,-0.04875 0.41625,-0.1275 l 0.2775,0.41625 c -0.18,0.15375 -0.5025,0.225 -0.7725,0.225 z m 0.2775,-1.17 c -0.01875,-0.07875 -0.0825,-0.2175 -0.3,-0.2175 -0.20625,0 -0.27375,0.135 -0.29625,0.2175 l 0.59625,0 z"
         id="Soy-Sauce"
         inkscape:connector-curvature="0"
         style="fill:#f39f32" />
    </g>
  </g>
</svg>
